X:229
T: Bra Lads of Gallowater
N: O'Farrell's Pocket Companion v.3 (Sky ed. p.112)
N: "Scotch"
M: C
R: hornpipe
L: 1/8
Q: 260
K: G
G/A/| B2 A>G G3B| d3e dBAG| B2A2 g3f| ed g>f e2 Hdd|
d2 ef g3a| b>age g3B| B2A2A2 B>d| e>d g>f e3d ||
